web/ui/src/components/theme/button/svgs/success.svg

<svg fill="none" height="16" viewBox="0 0 16 16" width="16" xmlns="http://www.w3.org/2000/svg"><path d="m8 15c3.866 0 7-3.134 7-7s-3.134-7-7-7-7 3.134-7 7 3.134 7 7 7z" fill="#3ebb03"/><path clip-rule="evenodd" d="m11.9242 5.57564c.2343.23431.2343.61421 0 .84853l-4.6667 4.66663c-.11602.1161-.2745.1795-.43853.1756-.16404-.0039-.31932-.0748-.42969-.1962l-1.83334-2.01669c-.2229-.2452-.20483-.62467.04036-.84757.2452-.22291.62467-.20484.84757.04036l1.41005 1.55106 4.22168-4.22172c.2344-.23432.6143-.23432.8486 0z" fill="#fff" fill-rule="evenodd"/></svg>

<svg width="16" height="16" viewBox="0 0 16 16" fill="none" xmlns="http://www.w3.org/2000/svg">
<path d="M8 15C11.866 15 15 11.866 15 8C15 4.134 11.866 1 8 1C4.134 1 1 4.134 1 8C1 11.866 4.134 15 8 15Z" fill="#3EBB03"/>
<path fill-rule="evenodd" clip-rule="evenodd" d="M11.9242 5.57564C12.1585 5.80995 12.1585 6.18985 11.9242 6.42417L7.2575 11.0908C7.14148 11.2069 6.983 11.2703 6.81897 11.2664C6.65493 11.2625 6.49965 11.1916 6.38928 11.0702L4.55594 9.05351C4.33304 8.80831 4.35111 8.42884 4.5963 8.20594C4.8415 7.98303 5.22097 8.0011 5.44387 8.2463L6.85392 9.79736L11.0756 5.57564C11.31 5.34132 11.6899 5.34132 11.9242 5.57564Z" fill="white"/>
</svg>
